icons/Color/scalable/gimp-prefs-image-title.svg

<svg height="15.999846" viewBox="0 0 16.000076 15.999845" width="16.000076" xmlns="http://www.w3.org/2000/svg"><g transform="matrix(.99982314 0 0 1.0001806 .001335 -.001541)"><g fill-rule="evenodd"><rect fill="#eeeeec" height="15.570165" rx=".466285" ry=".478417" stroke="#888a85" stroke-width=".426985" width="15.575768" x=".212158" y=".21484"/><rect fill="#204a87" height="1" rx=".083352" ry=".07409" width="12" x="2" y="1.999846"/><rect fill="#888a85" height="1" rx=".083352" ry=".07409" width="12" x="2" y="12.999846"/></g><path d="m4 10.999847v-2h5v1h-4v1h1l-1.5 1.999999-1.5-1.999999z" fill="#c00"/><path d="m4 4.9998465v2h5v-1h-4v-1h1l-1.5-1.9999995-1.5 1.9999995z" fill="#c00"/></g></svg>

<?xml version="1.0" encoding="UTF-8" standalone="no"?>
<svg
   xmlns:dc="http://purl.org/dc/elements/1.1/"
   xmlns:cc="http://creativecommons.org/ns#"
   xmlns:rdf="http://www.w3.org/1999/02/22-rdf-syntax-ns#"
   xmlns:svg="http://www.w3.org/2000/svg"
   xmlns="http://www.w3.org/2000/svg"
   xmlns:xlink="http://www.w3.org/1999/xlink"
   xmlns:sodipodi="http://sodipodi.sourceforge.net/DTD/sodipodi-0.dtd"
   xmlns:inkscape="http://www.inkscape.org/namespaces/inkscape"
   version="1.1"
   width="16.000076"
   height="15.999846"
   id="svg2"
   viewBox="0 0 16.000076 15.999845"
   inkscape:version="0.92pre1 unknown"
   sodipodi:docname="gimp-prefs-image-title.svg">
  <sodipodi:namedview
     pagecolor="#ffffff"
     bordercolor="#666666"
     borderopacity="1"
     objecttolerance="10"
     gridtolerance="10"
     guidetolerance="10"
     inkscape:pageopacity="0"
     inkscape:pageshadow="2"
     inkscape:window-width="501"
     inkscape:window-height="405"
     id="namedview1700"
     showgrid="true"
     inkscape:zoom="36.087908"
     inkscape:cx="16.535197"
     inkscape:cy="5.6966425"
     inkscape:window-x="0"
     inkscape:window-y="27"
     inkscape:window-maximized="0"
     inkscape:current-layer="svg2">
    <inkscape:grid
       type="xygrid"
       id="grid3447" />
  </sodipodi:namedview>
  <metadata
     id="metadata90">
    <rdf:RDF>
      <cc:Work>
        <dc:format>image/svg+xml</dc:format>
        <dc:type
           rdf:resource="http://purl.org/dc/dcmitype/StillImage" />
        <dc:title>Gimp Color Icon Theme</dc:title>
        <dc:contributor>
          <cc:Agent>
            <dc:title>many unknown and unnamed, Andrew Chadwick, Alexandre Prokoudine, Aryeom Han, Benoit Touchette, Jakub Steiner, Jehan, Johannes Matschke, Kevin Payne, Klaus Staedtler, Marek Dvoroznak, Michael Natterer</dc:title>
          </cc:Agent>
        </dc:contributor>
        <dc:description>Enhanced, extended tango-art-libre for GIMP</dc:description>
      </cc:Work>
    </rdf:RDF>
  </metadata>
  <defs
     id="defs7386">
    <linearGradient
       id="linearGradient3832">
      <stop
         stop-color="#ffffff"
         id="stop3834" />
      <stop
         stop-color="#e0e0e0"
         id="stop3836"
         offset="1" />
    </linearGradient>
    <linearGradient
       id="linearGradient3568">
      <stop
         stop-color="#c00"
         id="stop3570" />
      <stop
         stop-opacity="0"
         stop-color="#c00"
         id="stop3572"
         offset="1" />
    </linearGradient>
    <linearGradient
       xlink:href="#linearGradient3832"
       id="linearGradient7410"
       gradientUnits="userSpaceOnUse"
       gradientTransform="matrix(0.96824015,0,0,0.98024095,826.2942,83.444277)"
       x1="17.88068"
       y1="11.072588"
       x2="17.88068"
       y2="21.767578" />
    <linearGradient
       y2="20"
       x2="80"
       y1="20"
       x1="75.19239"
       gradientTransform="matrix(0.42857141,0,0,-0.49999992,819.99652,126.27446)"
       gradientUnits="userSpaceOnUse"
       id="linearGradient3578"
       xlink:href="#linearGradient3568" />
    <linearGradient
       y2="20"
       x2="80"
       y1="20"
       x1="75.19239"
       gradientTransform="matrix(0.42857141,0,0,0.49999992,819.99652,-110.27477)"
       gradientUnits="userSpaceOnUse"
       id="linearGradient3578-1"
       xlink:href="#linearGradient3568" />
  </defs>
  <g
     id="g3497"
     transform="matrix(0.99982314,0,0,1.0001806,0.00133458,-0.00154058)">
    <g
       style="display:inline"
       id="g7390"
       transform="matrix(0.01004766,0,0,0.01155023,17.00766,13.876329)" />
    <rect
       ry="0.47841677"
       rx="0.46628499"
       y="0.21484029"
       x="0.21215792"
       height="15.570165"
       width="15.575768"
       id="rect7400-7"
       style="color:#000000;display:inline;overflow:visible;visibility:visible;opacity:1;fill:#eeeeec;fill-opacity:1;fill-rule:evenodd;stroke:#888a85;stroke-width:0.42698547;stroke-linecap:butt;stroke-linejoin:miter;stroke-miterlimit:4;stroke-dasharray:none;stroke-dashoffset:0;stroke-opacity:1;marker:none;marker-start:none;marker-mid:none;marker-end:none" />
    <rect
       ry="0.074090302"
       rx="0.083351634"
       y="1.9998463"
       x="2"
       height="1"
       width="12"
       id="rect7402-6"
       style="color:#000000;display:inline;overflow:visible;visibility:visible;opacity:1;fill:#204a87;fill-opacity:1;fill-rule:evenodd;stroke:none;stroke-width:0.8067863;stroke-linecap:butt;stroke-linejoin:miter;stroke-miterlimit:4;stroke-dasharray:none;stroke-dashoffset:0;stroke-opacity:1;marker:none;marker-start:none;marker-mid:none;marker-end:none" />
    <rect
       style="color:#000000;display:inline;overflow:visible;visibility:visible;opacity:1;fill:#888a85;fill-opacity:1;fill-rule:evenodd;stroke:none;stroke-width:0.8067863;stroke-linecap:butt;stroke-linejoin:miter;stroke-miterlimit:4;stroke-dasharray:none;stroke-dashoffset:0;stroke-opacity:1;marker:none;marker-start:none;marker-mid:none;marker-end:none"
       id="rect3584"
       width="12"
       height="1"
       x="2"
       y="12.999846"
       rx="0.083351634"
       ry="0.074090302" />
    <path
       sodipodi:nodetypes="cccccccccc"
       inkscape:connector-curvature="0"
       style="color:#000000;display:inline;overflow:visible;visibility:visible;opacity:1;fill:#cc0000;fill-opacity:1;fill-rule:nonzero;stroke:none;stroke-width:0.46291003;stroke-linecap:butt;stroke-linejoin:miter;stroke-miterlimit:4;stroke-dasharray:none;stroke-dashoffset:0;stroke-opacity:1;marker:none;marker-start:none;marker-mid:none;marker-end:none"
       d="m 4,10.999847 v -2 h 5 v 1 H 5 v 1 H 6 L 4.5,12.999846 3,10.999847 Z"
       id="path3576" />
    <path
       sodipodi:nodetypes="cccccccccc"
       inkscape:connector-curvature="0"
       style="color:#000000;display:inline;overflow:visible;visibility:visible;opacity:1;fill:#cc0000;fill-opacity:1;fill-rule:nonzero;stroke:none;stroke-width:0.46291003;stroke-linecap:butt;stroke-linejoin:miter;stroke-miterlimit:4;stroke-dasharray:none;stroke-dashoffset:0;stroke-opacity:1;marker:none;marker-start:none;marker-mid:none;marker-end:none"
       d="m 4,4.9998465 v 2 h 5 v -1 H 5 v -1 H 6 L 4.5,2.999847 3,4.9998465 Z"
       id="path3576-9" />
  </g>
</svg>
